libs/icons/src/svg/quote.svg

<svg width="16" height="16" viewBox="0 0 16 16" fill="none" xmlns="http://www.w3.org/2000/svg">
<path fill-rule="evenodd" clip-rule="evenodd" d="M4.25473 2.61593C4.59498 2.47525 4.75677 2.08538 4.61608 1.74512C4.4754 1.40487 4.08553 1.24308 3.74527 1.38377C2.53271 1.88512 1.5806 2.69758 0.940392 3.83078C0.305884 4.9539 0 6.35172 0 7.99985V14.6665C0 15.0347 0.298477 15.3332 0.666667 15.3332H6C6.36819 15.3332 6.66667 15.0347 6.66667 14.6665V7.99985C6.66667 7.63166 6.36819 7.33318 6 7.33318H1.35294C1.42409 6.15946 1.68652 5.22077 2.10127 4.48663C2.58607 3.62851 3.30063 3.01042 4.25473 2.61593ZM1.33333 13.9998V8.66652H5.33333V13.9998H1.33333ZM13.5881 2.61593C13.9283 2.47525 14.0901 2.08538 13.9494 1.74512C13.8087 1.40487 13.4189 1.24308 13.0786 1.38377C11.866 1.88512 10.9139 2.69758 10.2737 3.83078C9.63922 4.9539 9.33333 6.35172 9.33333 7.99985V14.6665C9.33333 15.0347 9.63181 15.3332 10 15.3332H15.3333C15.7015 15.3332 16 15.0347 16 14.6665V7.99985C16 7.63166 15.7015 7.33318 15.3333 7.33318H10.6863C10.7574 6.15946 11.0199 5.22077 11.4346 4.48663C11.9194 3.62851 12.634 3.01042 13.5881 2.61593ZM10.6667 13.9998V8.66652H14.6667V13.9998H10.6667Z" fill="#202327"/>
</svg>

<svg xmlns="http://www.w3.org/2000/svg" viewBox="0 0 16 16" class="sageicon"><path fill-rule="evenodd" d="M4.255 2.616a.667.667 0 1 0-.51-1.232C2.533 1.885 1.581 2.698.94 3.83.306 4.954 0 6.35 0 8v6.666c0 .369.298.667.667.667H6a.667.667 0 0 0 .667-.667V8A.667.667 0 0 0 6 7.333H1.353c.071-1.174.334-2.112.748-2.846.485-.858 1.2-1.477 2.154-1.871ZM1.333 14V8.667h4V14h-4ZM13.588 2.616a.667.667 0 0 0-.51-1.232c-1.212.501-2.164 1.314-2.804 2.447-.635 1.123-.94 2.52-.94 4.169v6.666c0 .369.298.667.666.667h5.333a.667.667 0 0 0 .667-.667V8a.667.667 0 0 0-.667-.667h-4.647c.071-1.174.334-2.112.749-2.846.484-.858 1.199-1.477 2.153-1.871ZM10.667 14V8.667h4V14h-4Z"/></svg>
